X:1
T: Barrack Hill
P:Roche version
R:Jig
Q:180
K:Am
M:6/8
L:1/16
|:e4A2 A2A2A2|e4d2 B6|e4A2 A2A2A2|G4A2 B6|
e4A2 A2A2A2|e4d2 B6|d4B2 g4B2|A6 A6|
e4d2 e2^f2g2|a4f2 g2^f2e2|d4B2 g4B2|d4B2 d6|
e4d2 e2^f2g2|a4f2 g2^f2e2|d4B2 g4B2|A6 A6:|
